tokens/8453/0xacfe6019ed1a7dc6f7b508c02d1b04ec88cc21bf/logo.svg

<svg width="128" height="128" viewBox="0 0 128 128" fill="none" xmlns="http://www.w3.org/2000/svg">
<rect width="128" height="128" rx="64" fill="white"/>
<g clip-path="url(#clip0_102_815)">
<path fill-rule="evenodd" clip-rule="evenodd" d="M65.6012 64.6582L65.587 64.6727V48.9829H59.3702V45.7604H62.5035V29.5529C60.6746 28.8603 59.3702 27.0522 59.3702 24.9306C59.3702 22.2111 61.5181 20.0093 64.1621 20.0093C66.8063 20.0093 68.9469 22.2111 68.9469 24.9306C68.9469 27.0741 67.6215 28.8968 65.7642 29.5748V45.7167H68.7626V60.9836C67.508 62.0189 66.4518 63.251 65.6012 64.6582ZM62.7444 24.8941C62.7444 25.6961 63.3753 26.3523 64.1621 26.3523C64.9419 26.3523 65.5799 25.6961 65.5799 24.8941C65.5799 24.0921 64.949 23.436 64.1621 23.436C63.3824 23.436 62.7444 24.0921 62.7444 24.8941Z" fill="#04080B"/>
<path d="M74.7029 40.6494V57.9651C73.505 58.2932 72.3849 58.7306 71.3571 59.2701V40.6494H74.7029Z" fill="#04080B"/>
<path fill-rule="evenodd" clip-rule="evenodd" d="M71.35 29.8591H80.6431V39.4174H71.35V29.8591ZM74.6959 35.7574H77.2265V33.1546H74.6959V35.7574Z" fill="#04080B"/>
<path fill-rule="evenodd" clip-rule="evenodd" d="M47.7733 29.7861H57.0664V39.3444H47.7733V29.7861ZM51.1191 35.6917H53.6497V33.0889H51.1191V35.6917Z" fill="#04080B"/>
<path d="M53.6213 40.6934H57.0309V49.1653H47.7378V40.6934H51.0907V45.5126H53.6213V40.6934Z" fill="#04080B"/>
<path fill-rule="evenodd" clip-rule="evenodd" d="M85.3429 34.7877C85.3429 32.061 87.3205 29.8591 89.9646 29.8591C92.6087 29.8591 94.7566 32.061 94.7566 34.7877C94.7566 36.8218 93.5515 38.5789 91.829 39.3226V54.626H80.5864V57.1851C80.2319 57.1851 79.7783 57.2142 79.3246 57.2507C78.6087 57.2871 77.9069 57.3527 77.2264 57.4475V40.6568H80.629V51.3014H88.4264V39.4465C86.5904 38.7831 85.3429 36.9458 85.3429 34.7877ZM88.5398 34.744C88.5398 35.546 89.1778 36.2021 89.9646 36.2021C90.7515 36.2021 91.3895 35.546 91.3823 34.744C91.3823 33.942 90.7515 33.2858 89.9646 33.2858C89.1778 33.2858 88.5398 33.9347 88.5398 34.744Z" fill="#04080B"/>
<path fill-rule="evenodd" clip-rule="evenodd" d="M47.8016 54.6989H36.3961V39.4173C34.5388 38.7393 33.2133 36.9166 33.2133 34.7804C33.2133 32.0536 35.354 29.8518 37.9981 29.8518C40.6492 29.8518 42.7899 32.0609 42.7899 34.7804C42.7899 36.8874 41.5069 38.681 39.6993 39.3882V51.4034H62.4963V64.4685C61.674 63.1562 60.6674 62.0042 59.4978 61.0273V54.6405H56.953V59.3212C55.918 58.7744 54.798 58.3297 53.6072 57.9943V54.6697H51.119V57.4694C50.0558 57.309 48.9429 57.2288 47.8016 57.2288V54.6989ZM39.43 34.7366C39.43 33.9347 38.792 33.2785 38.0051 33.2785C37.2183 33.2785 36.5803 33.9347 36.5874 34.7366C36.5874 35.5386 37.2183 36.1948 38.0051 36.1948C38.792 36.1948 39.43 35.5459 39.43 34.7366Z" fill="#04080B"/>
<path fill-rule="evenodd" clip-rule="evenodd" d="M91.7722 59.0225C92.0557 69.8712 91.4532 81.3542 82.8405 94.6894C77.4958 102.957 71.2436 106.18 67.5291 107.426C65.3885 108.134 63.0847 108.134 60.9367 107.441C57.1443 106.216 50.7575 103.008 45.3914 94.6967C36.7788 81.3615 36.1692 69.8785 36.4598 59.0297C36.4598 59.0297 38.6502 61.5451 44.555 60.7358C52.0689 59.7078 60.5186 61.9971 61.7945 72.1095V79.6409C61.7945 79.6409 59.838 75.106 53.756 76.411C47.8087 77.6869 43.435 74.2821 40.7201 70.6805C40.7201 70.6805 41.5423 83.4539 49.0421 93.1437C55.3864 101.339 58.9307 102.797 62.6806 103.81C63.7013 104.08 64.7717 104.08 65.7924 103.803C69.4857 102.789 72.8528 101.317 79.1899 93.1364C86.6897 83.4466 87.5119 70.6732 87.5119 70.6732C84.7971 74.2821 80.4233 77.6796 74.476 76.4037C68.3869 75.0987 66.4376 79.6336 66.4376 79.6336V72.1022C67.7135 61.9898 76.1631 59.7005 83.6771 60.7285C89.5889 61.5378 91.7722 59.0225 91.7722 59.0225ZM74.0871 72.0979C75.5223 72.336 77.0949 72.5968 79.3671 72.0657C81.8623 71.4824 84.4922 67.4215 84.4781 67.4142C82.8424 67.1626 81.6288 66.8725 80.6068 66.6279L80.6054 66.6276L80.6041 66.6274C78.7839 66.1919 77.5706 65.9016 75.6598 66.2331C70.9743 67.0496 69.7125 72.6417 69.7125 72.6417C70.719 71.8251 72.5338 71.847 73.6679 72.0293C73.8065 72.0514 73.9457 72.0745 74.0862 72.0979L74.0871 72.0979ZM58.6401 72.649C58.6401 72.649 57.3783 67.0569 52.6927 66.2404C50.7735 65.9083 49.5576 66.2003 47.7307 66.6392L47.7297 66.6394C46.709 66.8846 45.498 67.1754 43.8674 67.4288C43.8674 67.4288 46.4902 71.4897 48.9853 72.073C51.2575 72.6041 52.8303 72.3433 54.2655 72.1052C54.4063 72.0819 54.5459 72.0587 54.6847 72.0365C55.8188 71.8543 57.6405 71.8324 58.6401 72.649Z" fill="#04080B"/>
<path d="M58.8214 92.5562C58.0362 93.0582 56.2044 93.2055 55.1816 93.2033C55.0545 93.2033 54.9893 93.3579 55.0863 93.4424C56.3588 94.5521 58.2256 94.2685 59.9662 93.9768C60.6667 93.8595 61.3605 94.1059 62.0891 94.3647C62.6895 94.5783 63.3135 94.8007 63.9847 94.8342C64.6558 94.8007 65.2799 94.5783 65.8803 94.3647C66.609 94.1059 67.3027 93.8595 68.0032 93.9768C69.7437 94.2685 71.6105 94.5521 72.8831 93.4424C72.9801 93.3579 72.9149 93.2033 72.7878 93.2033C71.7649 93.2055 69.9331 93.0582 69.148 92.5562C69.0141 92.4707 68.8852 92.3856 68.7595 92.3027C67.8452 91.6996 67.1022 91.2095 65.9348 91.4825C65.4777 91.5895 65.2664 91.7662 65.0717 91.9291C64.8301 92.1312 64.6139 92.312 63.9847 92.312C63.3555 92.312 63.1393 92.1312 62.8977 91.9291C62.7029 91.7662 62.4918 91.5895 62.0345 91.4825C60.8673 91.2095 60.1242 91.6996 59.21 92.3027C59.0842 92.3856 58.9552 92.4707 58.8214 92.5562Z" fill="#04080B"/>
<path d="M60.1811 96.4324C61.0725 96.7846 62.503 97.3197 63.9849 97.276C65.4668 97.3197 66.8974 96.7846 67.7887 96.4324C67.8873 96.3931 67.9903 96.4747 67.9726 96.5819C67.5959 98.8697 65.1026 99.7534 63.9849 99.7534C62.8673 99.7534 60.374 98.8697 59.9972 96.5819C59.9796 96.4747 60.0824 96.3931 60.1811 96.4324Z" fill="#04080B"/>
<path d="M69.1858 82.5223C69.1397 82.3845 69.2744 82.2846 69.3657 82.3954C69.8542 82.9889 70.2597 84.03 69.8684 85.0077C69.8562 85.0288 69.8436 85.0509 69.8307 85.074C69.5765 85.5243 69.1327 86.3106 66.9748 86.1983C65.8675 86.1411 64.8497 86.6675 64.1339 89.1646C64.0921 89.3105 63.8772 89.3106 63.8353 89.1649C63.117 86.6675 62.1015 86.1405 60.9948 86.1983C58.837 86.3106 58.3931 85.5243 58.1391 85.074C58.1261 85.0509 58.1136 85.0288 58.1013 85.0077C57.71 84.03 58.1162 82.9889 58.6039 82.3954C58.6953 82.2846 58.8299 82.3845 58.7839 82.5223C58.1885 84.2976 58.7081 84.7722 58.9809 84.7722C59.2375 84.7722 59.4164 84.5877 59.6322 84.3651C59.8177 84.1738 60.0305 83.9543 60.3434 83.7996C60.7475 83.6006 61.6158 83.419 62.2141 83.7996C62.5002 83.9815 62.7387 84.1136 62.9422 84.2104C63.5981 84.5221 64.3716 84.5223 65.0275 84.2106C65.2311 84.1139 65.4695 83.9816 65.7556 83.7996C66.3539 83.419 67.2229 83.6006 67.6263 83.7996C67.9394 83.954 68.1522 84.1737 68.3378 84.3652C68.5534 84.5877 68.7323 84.7722 68.9887 84.7722C69.2616 84.7722 69.7812 84.2976 69.1858 82.5223Z" fill="#04080B"/>
</g>
<defs>
<clipPath id="clip0_102_815">
<rect width="61.6" height="88" fill="white" transform="translate(33.2 20)"/>
</clipPath>
</defs>
</svg>

<svg xmlns="http://www.w3.org/2000/svg" width="128" height="128" fill="none"><rect width="128" height="128" fill="#E6EDF2" rx="64"/><g fill="#04080B" clip-path="url(#a)"><path fill-rule="evenodd" d="m65.601 64.658-.014.015v-15.69H59.37V45.76h3.134V29.553c-1.83-.693-3.134-2.5-3.134-4.622 0-2.72 2.148-4.922 4.792-4.922 2.644 0 4.785 2.202 4.785 4.922 0 2.143-1.326 3.966-3.183 4.644v16.142h2.999v15.267a14.375 14.375 0 0 0-3.162 3.674Zm-2.857-39.764c0 .802.631 1.458 1.418 1.458.78 0 1.418-.656 1.418-1.458 0-.802-.631-1.458-1.418-1.458-.78 0-1.418.656-1.418 1.458Z" clip-rule="evenodd"/><path d="M74.703 40.65v17.315a16.658 16.658 0 0 0-3.346 1.305V40.65h3.346Z"/><path fill-rule="evenodd" d="M71.35 29.86h9.293v9.557H71.35V29.86Zm3.346 5.897h2.53v-2.602h-2.53v2.602ZM47.773 29.786h9.293v9.558h-9.293v-9.558Zm3.346 5.906h2.53v-2.603h-2.53v2.603Z" clip-rule="evenodd"/><path d="M53.621 40.693h3.41v8.472h-9.293v-8.472h3.353v4.82h2.53v-4.82Z"/><path fill-rule="evenodd" d="M85.343 34.788c0-2.727 1.977-4.929 4.622-4.929 2.644 0 4.792 2.202 4.792 4.929 0 2.034-1.206 3.79-2.928 4.535v15.303H80.586v2.56c-.354 0-.808.028-1.261.065a24.1 24.1 0 0 0-2.099.197V40.656h3.403V51.3h7.797V39.446c-1.836-.663-3.083-2.5-3.083-4.658Zm3.197-.044c0 .802.638 1.458 1.425 1.458.786 0 1.424-.656 1.417-1.458 0-.802-.63-1.458-1.417-1.458s-1.425.649-1.425 1.458ZM47.802 54.699H36.396V39.417c-1.857-.678-3.183-2.5-3.183-4.637 0-2.726 2.141-4.928 4.785-4.928 2.651 0 4.792 2.209 4.792 4.928 0 2.107-1.283 3.901-3.09 4.608v12.015h22.796V64.47a14.492 14.492 0 0 0-2.998-3.442v-6.386h-2.545v4.68a17.05 17.05 0 0 0-3.346-1.327V54.67H51.12v2.8a22.29 22.29 0 0 0-3.317-.241v-2.53ZM39.43 34.737c0-.802-.638-1.459-1.425-1.459s-1.425.657-1.418 1.459c0 .802.631 1.458 1.418 1.458.787 0 1.425-.65 1.425-1.458Z" clip-rule="evenodd"/><path fill-rule="evenodd" d="M91.772 59.023c.284 10.848-.319 22.331-8.931 35.666-5.345 8.268-11.597 11.491-15.312 12.737-2.14.708-4.444.708-6.592.015-3.793-1.225-10.18-4.433-15.546-12.744C36.78 81.362 36.17 69.878 36.46 59.03c0 0 2.19 2.515 8.095 1.706 7.514-1.028 15.964 1.261 17.24 11.373v7.532s-1.957-4.535-8.039-3.23c-5.947 1.276-10.321-2.129-13.036-5.73 0 0 .822 12.773 8.322 22.463 6.344 8.195 9.889 9.653 13.639 10.666 1.02.27 2.09.27 3.111-.007 3.694-1.014 7.06-2.486 13.398-10.667 7.5-9.69 8.322-22.463 8.322-22.463-2.715 3.61-7.089 7.007-13.036 5.73-6.09-1.304-8.038 3.23-8.038 3.23v-7.53c1.275-10.113 9.725-12.402 17.24-11.374 5.91.809 8.094-1.706 8.094-1.706ZM74.087 72.097c1.435.238 3.008.499 5.28-.032 2.495-.584 5.125-4.645 5.111-4.652-1.636-.251-2.85-.541-3.871-.786h-.002c-1.821-.436-3.034-.726-4.945-.395-4.686.817-5.947 6.409-5.947 6.409 1.006-.817 2.82-.795 3.955-.613l.418.069h.001Zm-15.447.551s-1.262-5.592-5.947-6.409c-1.92-.332-3.135-.04-4.962.4h-.001c-1.021.245-2.232.535-3.863.789 0 0 2.623 4.06 5.118 4.644 2.273.531 3.845.27 5.28.032l.42-.069c1.134-.182 2.956-.204 3.955.613Z" clip-rule="evenodd"/><path d="M58.821 92.556c-.785.502-2.617.65-3.64.647-.127 0-.192.155-.095.24 1.273 1.11 3.14.826 4.88.534.7-.118 1.395.129 2.123.388.6.213 1.224.436 1.896.47.67-.034 1.295-.257 1.895-.47.729-.26 1.423-.505 2.123-.388 1.74.291 3.608.575 4.88-.535.097-.084.032-.239-.095-.239-1.023.002-2.855-.145-3.64-.647-.134-.085-.263-.17-.388-.253-.915-.603-1.658-1.093-2.825-.82a1.835 1.835 0 0 0-.863.446c-.242.202-.458.383-1.087.383-.63 0-.846-.18-1.087-.383-.195-.163-.406-.34-.864-.447-1.167-.272-1.91.218-2.824.82-.126.084-.255.169-.389.254ZM60.181 96.432c.892.353 2.322.888 3.804.844 1.482.044 2.912-.491 3.804-.844a.135.135 0 0 1 .184.15c-.377 2.288-2.87 3.171-3.988 3.171-1.118 0-3.611-.883-3.988-3.171a.135.135 0 0 1 .184-.15ZM69.186 82.522c-.046-.138.088-.237.18-.127.488.594.894 1.635.502 2.613a5.1 5.1 0 0 0-.037.066c-.255.45-.698 1.237-2.856 1.124-1.107-.057-2.125.47-2.841 2.967-.042.145-.257.146-.299 0-.718-2.498-1.733-3.025-2.84-2.967-2.158.113-2.602-.674-2.856-1.124a5.074 5.074 0 0 0-.038-.066c-.391-.978.015-2.02.503-2.613.091-.11.226-.01.18.127-.596 1.776-.076 2.25.197 2.25.256 0 .435-.184.651-.407.186-.191.399-.41.711-.565.404-.2 1.273-.381 1.871 0 .286.181.525.314.728.41.656.312 1.43.312 2.086 0 .203-.096.441-.228.728-.41.598-.381 1.467-.2 1.87 0 .313.154.526.374.712.565.215.223.394.407.65.407.274 0 .793-.474.198-2.25Z"/></g><defs><clipPath id="a"><path fill="#fff" d="M33.2 20h61.6v88H33.2z"/></clipPath></defs></svg>
